public/images/tel.svg

<svg width="31" height="31" viewBox="0 0 31 31" fill="none" xmlns="http://www.w3.org/2000/svg">
<path d="M15.2624 0C6.8323 0 0 6.8323 0 15.2624C0 23.6862 6.8323 30.5185 15.256 30.5185H15.2688C23.6989 30.5185 30.5249 23.6862 30.5249 15.2624C30.5249 6.8323 23.6926 0 15.2624 0Z" fill="#8976FF"/>
<path d="M21.2404 9.57984C20.5861 9.0427 19.8185 8.7168 19.0006 8.5116C16.9307 7.99257 14.8419 7.86582 12.7216 8.14345C11.652 8.28226 10.6139 8.55385 9.6639 9.06685C8.544 9.67037 7.77013 10.5334 7.43039 11.7405C7.19131 12.5975 7.07177 13.4726 7.02773 14.3538C6.95852 15.6634 7.00256 16.961 7.3486 18.2344C7.75126 19.7071 8.63208 20.7934 10.1295 21.3728C10.2931 21.4331 10.4503 21.5237 10.6139 21.584C10.7649 21.6444 10.809 21.7409 10.809 21.8979C10.8027 22.9178 10.8027 23.9378 10.8027 25C11.199 24.6379 11.4696 24.3663 11.6709 24.1551C12.2623 23.5153 12.8223 22.9782 13.4388 22.3686C13.7471 22.0608 13.6213 22.0729 14.1058 22.085C14.672 22.091 15.5717 22.1151 16.1379 22.0729C17.2201 21.9884 18.2959 21.8556 19.3403 21.5539C20.6616 21.1736 21.7249 20.4916 22.2659 19.2061C22.4106 18.8621 22.5428 18.5241 22.6371 18.162C23.153 16.1161 23.0838 14.0641 22.6497 12.0181C22.4484 11.0645 22.0269 10.2196 21.2404 9.57984ZM14.6468 10.8171C14.6594 10.6179 14.779 10.5455 14.974 10.5515C16.6161 10.63 17.8555 11.1007 18.8119 12.3319C19.3718 13.0501 19.6738 14.0279 19.699 14.9331C19.699 15.0659 19.7053 15.1987 19.699 15.3315C19.6927 15.4824 19.6235 15.597 19.4473 15.597C19.2711 15.6031 19.1831 15.5065 19.1705 15.3375C19.1264 14.6676 18.988 14.0218 18.7238 13.4002C18.2079 12.1992 17.2264 11.5534 15.9555 11.2395C15.622 11.1551 15.2823 11.0887 14.9362 11.0585C14.779 11.0464 14.6405 11.0162 14.6468 10.8171ZM16.3078 12.4949C15.9743 12.3802 15.6346 12.2957 15.2823 12.2414C15.1124 12.2173 14.9929 12.1328 15.0243 11.9396C15.0558 11.7646 15.1753 11.6922 15.3578 11.7043C16.5028 11.8129 17.4025 12.2112 18.0191 13.1708C18.3085 13.6175 18.4784 14.2451 18.4532 14.7219C18.4344 15.0599 18.384 15.1444 18.1827 15.1383C17.8933 15.1323 17.931 14.903 17.9122 14.734C17.8744 14.4745 17.8178 14.2149 17.7423 13.9675C17.5347 13.2372 17.0565 12.7484 16.3078 12.4949ZM17.283 14.3538C17.2704 14.4503 17.2704 14.5107 17.2578 14.571C17.2264 14.6978 17.1446 14.7702 17.0062 14.7702C16.8678 14.7762 16.7923 14.6978 16.7545 14.5771C16.7293 14.4986 16.7231 14.4141 16.7042 14.3296C16.6161 13.883 16.3518 13.5933 15.8863 13.4726C15.8296 13.4605 15.773 13.4545 15.7164 13.4364C15.5717 13.4002 15.3892 13.3941 15.3829 13.1889C15.3829 13.02 15.5151 12.9234 15.7541 12.9053C15.9177 12.8993 16.1757 12.9777 16.3204 13.0441C16.9244 13.3278 17.2075 13.7261 17.283 14.3538ZM19.7053 19.0371C19.3844 19.7312 18.837 20.1899 18.0757 20.3951C17.7989 20.4675 17.5284 20.4071 17.2767 20.3045C13.7912 18.8802 11.2745 16.5325 9.84635 13.1407C9.74569 12.8993 9.68277 12.6458 9.69535 12.4104C9.69535 11.5353 10.4944 10.7326 11.3689 10.6843C11.608 10.6722 11.8156 10.7507 11.9918 10.9076C12.6084 11.4568 13.1054 12.1026 13.464 12.8329C13.659 13.2252 13.5773 13.5028 13.2249 13.7864C13.1683 13.8347 13.1054 13.877 13.0488 13.9132C12.5769 14.2451 12.4762 14.5831 12.6964 15.0961C13.0676 15.9471 13.6653 16.617 14.4707 17.1119C14.779 17.2929 15.0872 17.474 15.4396 17.5706C15.7604 17.6611 16.0184 17.5645 16.226 17.3231C16.2449 17.2929 16.2701 17.2628 16.2889 17.2386C16.7419 16.6411 17.2201 16.5385 17.8744 16.9248C18.4281 17.2567 18.9566 17.637 19.4599 18.0413C19.7933 18.3189 19.8814 18.6448 19.7053 19.0371Z" fill="white"/>
</svg>

<svg width="31" height="31" viewBox="0 0 31 31" fill="none" xmlns="http://www.w3.org/2000/svg"><path d="M15.262 0C6.832 0 0 6.832 0 15.262c0 8.424 6.832 15.256 15.256 15.256h.013c8.43 0 15.256-6.832 15.256-15.256C30.525 6.832 23.693 0 15.262 0z" fill="#8976FF"/><path d="M21.24 9.58c-.654-.537-1.421-.863-2.24-1.068a16.67 16.67 0 00-6.278-.369c-1.07.14-2.108.41-3.058.924-1.12.603-1.894 1.466-2.234 2.674a11.9 11.9 0 00-.402 2.613c-.07 1.31-.025 2.607.32 3.88.403 1.473 1.284 2.56 2.782 3.139.163.06.32.15.484.211.15.06.195.157.195.314-.006 1.02-.006 2.04-.006 3.102.396-.362.667-.634.868-.845.591-.64 1.151-1.177 1.768-1.786.308-.308.182-.296.667-.284.566.006 1.466.03 2.032-.012 1.082-.085 2.158-.217 3.202-.52 1.322-.38 2.385-1.061 2.926-2.347.145-.344.277-.682.371-1.044.516-2.046.447-4.098.013-6.144-.202-.954-.623-1.798-1.41-2.438zm-6.593 1.237c.012-.2.132-.271.327-.265 1.642.078 2.881.549 3.838 1.78.56.718.862 1.696.887 2.601 0 .133.006.266 0 .399-.006.15-.076.265-.252.265-.176.006-.264-.09-.276-.26a5.89 5.89 0 00-.447-1.937c-.516-1.2-1.498-1.847-2.768-2.16a6.44 6.44 0 00-1.02-.181c-.157-.013-.296-.043-.29-.242zm1.66 1.678a5.902 5.902 0 00-1.025-.254c-.17-.024-.29-.108-.258-.301.032-.175.151-.248.334-.236 1.145.109 2.044.507 2.661 1.467.29.447.46 1.074.434 1.55-.019.339-.069.423-.27.417-.29-.006-.252-.235-.27-.404a5.219 5.219 0 00-.17-.767c-.208-.73-.686-1.219-1.435-1.472zm.976 1.859c-.013.096-.013.157-.025.217-.032.127-.113.2-.252.2-.138.005-.214-.073-.252-.194-.025-.078-.03-.163-.05-.247-.088-.447-.352-.737-.818-.857-.056-.013-.113-.019-.17-.037-.144-.036-.327-.042-.333-.247 0-.169.132-.266.371-.284.164-.006.422.073.566.14.604.283.887.681.963 1.309zm2.422 4.683c-.32.694-.868 1.153-1.63 1.358-.276.073-.547.012-.798-.09-3.486-1.425-6.003-3.773-7.43-7.164a1.71 1.71 0 01-.152-.73c0-.876.8-1.678 1.674-1.727a.843.843 0 01.623.224 6.276 6.276 0 011.472 1.925c.195.392.113.67-.24.953a1.6 1.6 0 01-.175.127c-.472.332-.573.67-.353 1.183.372.851.97 1.521 1.775 2.016.308.18.616.362.969.459.32.09.578-.007.786-.248.019-.03.044-.06.063-.084.453-.598.931-.7 1.585-.314.554.332 1.083.712 1.586 1.116.333.278.421.604.245.996z" fill="#fff"/></svg>
